X:1
T:CARIOCA
T:CARIOCA
T:TANGO
T:ERNESTO NAZARETH 1918 
T:Ao talentoso e inspirado artista Olympio Nogueira
C:ERNESTO NAZARETH
%%score { 1 | ( 2 3 ) }
L:1/8
Q:1/4=70
M:2/4
K:B
V:1 treble nm="Piano" snm="Pno."
V:2 bass 
V:3 bass 
V:1
"^Con dolcezza"!mf! D |:S !>!G/!>!A!>!B/- B/!>!c!>!d/ | !arpeggio!!>![^^Fe]>d z d | g/ab/ Pb/ag/ | %4
 !arpeggio![^^fe']>d' z !>!D | !>!G/!>!A!>!^B/- B/!>!c!>!d/ | !arpeggio!!>![Gcf]>e z/ ed/ | %7
 =db ag | ^^f/e'/d'/c'/ a/f/d/D/ | !>!G/!>!A!>!B/- B/!>!c!>!d/ | (!arpeggio!!>![^^Fe]>d) z d | %11
 !>!g/!>!a!>!b/ Pb/!>!a!>!g/ | (!arpeggio![^^fe']>d') z/ dc/ | ^B/=ag/ f/ed/ | g/c=B/ e/=AG/ | %15
 B/=AG/ [C^^F]/d[CF]/!dacoda! ||1,3 [B,G]2 z D :|2 [B,G] z !>![GBdg] z!fine! |: %18
!f! !>![Aeg] z !>![Aef]2 | z/ =ge/ c/A/^G/E/ | [B,D]/E^E/ F/GA/ | B/c^^c/ d/gf/ | %22
 ^e/f^^f/ g/d'c'/ | a/b^b/ c'/b'!f!g'/ |!8va(! ^e'/g'/f'/^^c'/ =e'/d'/a/^c'/!8va)! | %25
 b/^e/g/f/ d/B/G/F/ | [A,EG] z [A,EF]2 | z/ dc/ A/^^F/E/C/ | B,/C^^C/ D/^E^^F/ | G/AB/ c/d^e/ | %30
 f/g^^g/ a/d'c'/ | b/[Bd]f/ [B^e]/ag/ | %32
 [Af]/[ca]/[Af]/"_m. e." [CA]/[A,F]/"^m. d." [CA]/[A,F]/ z/ | z/ x z/ x2 | %34
!f! !>![Aeg] z !>![Aef]2 | z/ =ge/ c/A/^G/E/ | [B,D]/E^E/ F/GA/ | B/c^^c/ d/gf/ | %38
 ^e/f^^f/ g/d'c'/ | a/b^b/ c'/b'g'/ |!8va(! ^e'/g'/f'/^^c'/ =e'/d'/a/^c'/!8va)! | %41
 b/^e/g/f/ d/=e/f/g/ | !>![^Bf=a] z!f! !>![Bfg]2 | z/ fd/ ^B/=A/F/D/ | [G,C]/DE/ G/cd/ | %45
 e/gc'/ Pb/ag/ | b/ag/ Pf/ed/ | g/fe/ Pd/cF/ | B/D[B,D]/ P[A,D]/C[I:staff +1]F,/- |1 %49
[I:staff -1] x z !>![B,DFB]2 :|2 x z !arpeggio![C^^Fd]D!D.S.! || x/ | %52
O"^2. ves" [B,G]2 [GBdg]/FG/ |:[K:E]!f! (=A/B/c/d/ e/f/g/a/ | ^a/c'/b/g/ e/c/B/G/) | %55
 (F/^A/d/c/) (B/d/g/f/) | (e/g/c'/b/) z/ (fg/ | a/b/c'/d'/ e'/f'/g'/a'/ | %58
 g'/f'/e'/d'/ c'/b/^a/g/) | (f/^^f/^a/g/) (d/^f/e/c/) | B[dfb] z/ FG/ | (=A/B/c/d/ e/f/g/a/ | %62
 ^a/c'/b/g/ e/c/B/G/) | (F/^A/d/c/) (B/d/g/f/) | (e/g/c'/b/) z/ (ef/ | g/a/b/c'/ =d'/e'/f'/g'/) | %66
!8va(! a'/b'/c''/d''/ e''/d''/e''/c''/ | (b'/c''/b'/g'/) (f'/g'/f'/b/) |1 e'2!8va)! z/ FG/ :|2 %69
!8va(! e'2!8va)! z [egbe'] ||[K:B]!p! [d^^fad']>[dfad'] z [cfc'] | [Bdgb]>[Bdgb]!<(! z [Bgb] | %72
 [A^^cga]>[Acga] [G^eg][Geg]!<)! |!f! [^^Fd^^f]>[FAdf] z [=E=e] | [D^^FAd]>[DFAd] z [Fc^^f] | %75
 [GBdg]>[GBdg] z [GB^^cg] | [Bdgb]>[Bdgb] [GBeg][GAeg] | [^^FAd^^f]/D/d/d/ d'D || %78
V:2
 z |: G,,/B,/G,/D,/ B,,/B,/G,/D,/ | A,,/C/^^F,/D,/ D,,/C/F,/D,/ | G,,/B,/G,/D,/ B,,/B,/G,/D,/ | %4
 A,,/C/^^F,/D,/ D,,/C/F,/D,/ | G,,/F/^B,/G,/ D,/F/B,/G,/ | C,/E/C/G,/ E,/E/C/G,/ | %7
 E,/=D/B,/G,/ A,/B,/C/^^C/ | D [^^F,C]2- [F,C]/ z/ | G,,/B,/G,/D,/ B,,/B,/G,/D,/ | %10
 A,,/C/^^F,/D,/ D,,/C/F,/D,/ | G,,/B,/G,/D,/ B,,/B,/G,/D,/ | A,,/C/^^F,/D,/ D,,/C/F,/D,/ | %13
 G,,/^B,/G,/F,/ D,/B,/G,/F,/ | E,/C/G,/E,/ =D,/B,/G,/E,/ | C,/C/=A,/C,/ D,/C/^^F,/D,/ ||1,3 %16
 !>!G,,/!>!B,,!>!C,/ !>!^^C,/!>!D,!>!D,,/ :|2"^Fine." G,, z !>![G,,,G,,] z |: %18
"^energico" z/ C,D,/ E,/^E,F,/ | =G,2 E2 | [B,,F,]>[D,F,B,] [D,F,B,][D,F,B,] | %21
 F,,>[F,B,D] [F,B,D](!>!B,, | !>!C,>)[G,B,C^E] [G,B,CE][G,B,CE] | F,,>[F,A,=E] [F,A,E](F,, | %24
 B,,>)[F,B,D] [F,B,D][F,B,D] | D,>[F,B,D] [F,B,D][F,B,D] | z/ C,D,/ E,/^E,F,/ | ^^F,2 E2 | %28
 G,,/[D,G,][D,G,]/ [D,G,B,][D,G,B,] | B,,/[D,G,B,][D,G,B,]/ [D,G,B,][D,G,B,D] | A,,4 | %31
 G,,[B,DG] C,,[G,B,C^E] | [F,CF]2 z/ z [C,A,]/ | %33
 [A,,F,]/"^m. d." [C,A,]/[A,,F,]/ C,,/ F,,,"_m. e."F,, | z/ C,D,/ E,/^E,F,/ | =G,2 E2 | %36
 [B,,F,]>[D,F,B,] [D,F,B,][D,F,B,] | F,,>[F,B,D] [F,B,D](!>!B,, | %38
 !>!C,>)[G,B,C^E] [G,B,CE][G,B,CE] | F,,>[F,A,=E] [F,A,E](!>!F,, | !>!B,,>)[F,B,D] [F,B,D][F,B,D] | %41
 D,>[F,B,D] [F,B,D][F,B,D] | z/ D,E,/ F,/^^F,G,/ | =A,2 D2 | E,4 | E,[G,C] ^E,[G,^^C] | %46
 F,[B,D] G,,[^G,B,F] | C,[G,CE] F,,[F,A,E] | B,,2 [=E,=G,]2 |1 [F,B,] z !>![B,,,B,,]2 :|2 %50
 [F,B,] z D,,2 ||"^al" x/ | G,, z [G,,,G,,] z |:[K:E] [D,B,]>"^brilliante"[D,^A,] [D,=A,][D,A,] | %54
 G,>[G,B,E] [G,B,E][G,B,E] | [C,E,F,^A,]F,, [B,,D,F,=A,]B,,, | [E,G,]>[G,B,E] [G,B,E][G,B,E] | %57
 [D,B,]>[D,B,] A,[D,F,A,] | [E,G,]>[E,G,C] [G,CE][G,B,^^C] | [F,B,D]F,, [F,^A,E]F,, | %60
 [F,B,D]B,,- [B,,,B,,] z | [D,B,]>[D,^A,] [D,=A,][D,A,] | G,>[G,B,E] [G,B,E][G,B,E] | %63
 [C,E,F,^A,]F,, [B,,D,F,=A,]B,,, | G,>[G,B,E] [G,B,E][G,B,E] | [G,E]>[G,D] [G,=D][G,D] | %66
 C>[E,A,C] [E,=G,C][E,G,^A,] | [E,G,B,][B,E] A,[A,D] |1 [E,G,][G,B,E] E,, z :|2 %69
 [E,G,][G,B,E] E,, z ||[K:B] D,,/E,,/^E,,/F,,/ ^^F,,/G,,/=A,,/^A,,/ | %71
 B,,/^B,,/C,/^^C,/ D,/"^cresc."E,/^E,/F,/ | ^E,/A,,/^^C,/E,/ G,/A,/B,/^^C/ | %73
 D/=D/C/=C/ B,/A,/=A,/G,/ |"^dim." =G,/F,/=F,/E,/ D,/=D,/C,/=C,/ | %75
 B,,/A,,/=A,,/G,,/ =G,,/F,,/=F,,/E,,/ |"^rit." D,,/F,,/G,,/A,,/ B,,/^B,,/C,/^^C,/ | %77
 D,"^D.C. al" z D,, z || %78
V:3
 x |: x4 | x4 | x4 | x4 | x4 | x4 | E,2 E,2 | D,4 | x4 | x4 | x4 | x4 | x4 | x4 | x4 ||1,3 x4 :|2 %17
 x4 |: z/ F,,-F,,/- F,,2- | F,, z [A,C]2 | x4 | x4 | x4 | x4 | x4 | x4 | z/ F,,-F,,/- F,,2- | %27
 F,, z C2 | x4 | x4 | A,,/[C,F,C][C,F,C]/ C,,[F,A,C] | x4 | x4 | x/ z x/ z2 | z/ F,,-F,,/- F,,2- | %35
 F,, z [A,C]2 | x4 | x4 | x4 | x4 | x4 | x4 | z/ G,,-G,,/- G,,2- | G,, z [F,G,]2 | %44
 E,/G,[G,C]/ [G,C][G,C] | x4 | x4 | x4 | B,,/F,[^E,G,]/ x2 |1 D, x3 :|2 D, x3 || x/ | x4 |: %53
[K:E] =B,,2- B,,B,, | E,4 | x4 | x4 | (B,,2 ^B,,)B,, | C,2- C,^E, | x4 | x4 | =B,,2- B,,B,, | E,4 | %63
 x4 | E,4 | E,->E, E,-E, | A,,2 ^A,,2 | B,,G, B,,F, |1 x4 :|2 x4 ||[K:B] x4 | x4 | x4 | x4 | x4 | %75
 x4 | x4 | x4 || %78

